Newaita-dark/.DP/32/youtube-indicator-light-sync0.svg

<svg xmlns="http://www.w3.org/2000/svg" xmlns:xlink="http://www.w3.org/1999/xlink" width="32px" height="32px" viewBox="0 0 32 32" version="1.1">
<g id="surface1">
<path style=" stroke:none;fill-rule:nonzero;fill:rgb(93.333334%,93.333334%,93.333334%);fill-opacity:1;" d="M 20.75 22.15625 C 20.597656 22.304688 20.507812 22.511719 20.507812 22.742188 C 20.507812 22.800781 20.511719 22.855469 20.523438 22.910156 C 20.566406 24.035156 21.011719 25.152344 21.871094 26.007812 C 22.730469 26.867188 23.84375 27.316406 24.972656 27.355469 C 25.023438 27.367188 25.082031 27.371094 25.136719 27.371094 C 25.597656 27.371094 25.964844 27.003906 25.964844 26.542969 C 25.964844 26.085938 25.597656 25.71875 25.136719 25.71875 C 25.082031 25.71875 25.027344 25.722656 24.976562 25.734375 C 24.269531 25.695312 23.574219 25.402344 23.027344 24.855469 C 22.476562 24.304688 22.183594 23.609375 22.144531 22.902344 C 22.15625 22.851562 22.160156 22.796875 22.160156 22.742188 C 22.160156 22.285156 21.792969 21.914062 21.332031 21.914062 C 21.105469 21.914062 20.898438 22.007812 20.75 22.15625 Z M 20.75 22.15625 "/>
<path style=" stroke:none;fill-rule:nonzero;fill:rgb(93.333334%,93.333334%,93.333334%);fill-opacity:1;" d="M 29.527344 23.328125 C 29.675781 23.175781 29.769531 22.972656 29.769531 22.742188 C 29.769531 22.683594 29.761719 22.628906 29.75 22.574219 C 29.710938 21.449219 29.261719 20.332031 28.402344 19.472656 C 27.546875 18.617188 26.433594 18.167969 25.304688 18.128906 C 25.25 18.117188 25.195312 18.113281 25.136719 18.113281 C 24.679688 18.113281 24.308594 18.480469 24.308594 18.9375 C 24.308594 19.394531 24.679688 19.765625 25.136719 19.765625 C 25.191406 19.765625 25.246094 19.761719 25.300781 19.75 C 26.003906 19.789062 26.699219 20.082031 27.25 20.628906 C 27.796875 21.175781 28.089844 21.875 28.128906 22.582031 C 28.121094 22.632812 28.113281 22.6875 28.113281 22.742188 C 28.113281 23.199219 28.484375 23.566406 28.941406 23.566406 C 29.167969 23.566406 29.378906 23.476562 29.527344 23.328125 Z M 29.527344 23.328125 "/>
<path style=" stroke:none;fill-rule:nonzero;fill:rgb(93.333334%,93.333334%,93.333334%);fill-opacity:1;" d="M 15.839844 5.816406 C 15.839844 5.816406 7.175781 5.816406 5.011719 6.386719 C 3.847656 6.707031 2.890625 7.664062 2.570312 8.847656 C 2 11.015625 2 15.507812 2 15.507812 C 2 15.507812 2 20.019531 2.570312 22.164062 C 2.890625 23.347656 3.824219 24.285156 5.011719 24.605469 C 7.199219 25.195312 15.839844 25.195312 15.839844 25.195312 C 15.839844 25.195312 17.984375 25.195312 20.410156 25.125 C 20.050781 24.410156 19.847656 23.601562 19.847656 22.742188 C 19.847656 19.808594 22.207031 17.449219 25.136719 17.449219 C 26.945312 17.449219 28.535156 18.347656 29.488281 19.722656 C 29.675781 17.679688 29.675781 15.527344 29.675781 15.527344 C 29.675781 15.527344 29.699219 11.015625 29.105469 8.847656 C 28.789062 7.664062 27.855469 6.730469 26.667969 6.410156 C 24.503906 5.816406 15.839844 5.816406 15.839844 5.816406 Z M 13.195312 10.441406 C 13.207031 10.441406 13.21875 10.441406 13.230469 10.441406 C 13.339844 10.441406 13.449219 10.472656 13.546875 10.53125 L 20.917969 14.886719 C 21.351562 15.144531 21.351562 15.777344 20.917969 16.035156 L 13.546875 20.386719 C 13.101562 20.652344 12.542969 20.332031 12.542969 19.816406 L 12.542969 11.105469 C 12.542969 10.738281 12.832031 10.445312 13.195312 10.441406 Z M 13.195312 10.441406 "/>
</g>
</svg>

<svg xmlns="http://www.w3.org/2000/svg" width="32" height="32"><g fill="#bdbdbd"><path d="M20.75 22.156a.81.81 0 0 0-.242.586.79.79 0 0 0 .015.168 4.584 4.584 0 0 0 1.348 3.098 4.586 4.586 0 0 0 3.102 1.347.823.823 0 0 0 .992-.809.824.824 0 0 0-.988-.812 2.98 2.98 0 0 1-1.95-.879 2.984 2.984 0 0 1-.882-1.953.825.825 0 0 0-1.395-.746zm0 0M29.527 23.328a.833.833 0 0 0 .243-.586.79.79 0 0 0-.02-.168 4.615 4.615 0 0 0-1.344-3.101 4.607 4.607 0 0 0-3.101-1.344.825.825 0 0 0-.992.809c0 .457.367.828.824.828.054 0 .11-.008.164-.016.703.04 1.402.332 1.949.879.547.55.84 1.246.879 1.953a.829.829 0 0 0 1.398.746zm0 0"/><path d="M15.84 5.816s-8.664 0-10.832.57A3.545 3.545 0 0 0 2.57 8.853C2 11.016 2 15.508 2 15.508s0 4.512.57 6.656a3.466 3.466 0 0 0 2.438 2.438c2.191.593 10.832.593 10.832.593s2.144 0 4.57-.07a5.24 5.24 0 0 1-.566-2.383 5.282 5.282 0 0 1 5.293-5.293c1.808 0 3.398.899 4.351 2.27.188-2.04.188-4.188.188-4.188s.023-4.515-.57-6.68a3.465 3.465 0 0 0-2.438-2.44C24.5 5.815 15.84 5.815 15.84 5.815zm-2.645 4.622h.035c.114.003.22.039.317.093l7.367 4.356a.667.667 0 0 1 0 1.148l-7.367 4.352a.663.663 0 0 1-1.004-.575v-8.707a.67.67 0 0 1 .652-.668zm0 0"/></g></svg>
